!!!COM: frog-fractions-soundtrack
!!!OTL: rimushotto-bungie-jump
!!!RNB: hooktheoryid: YRzojwakmDe
**kern	**text
*clefG2	*
*k[]	*
*M4/4	*
=1	=1
8e	C
4e	.
4e	.
8d	.
8e	.
8f	.
=2	=2
8g	G
4d	.
4d	.
8e	.
8f	.
8g	.
=3	=3
4a	F
8g	.
4a	.
8cc	.
8dd	.
[8g	.
=4	=4
8g]	C
8f	.
4e	.
8r	.
4g	.
8g	.
=5	=5
4a	Dm
8b	.
4cc	.
8a	.
8a	.
8a	.
=6	=6
4g	Em
8b	.
4cc	.
8g	.
8g	.
8g	.
=7	=7
4f	F
8e	.
4f	.
8e	.
8f	.
8g	.
=8	=8
4a	F
8f	.
[8ccL	.
8cc]J	G
[8bL	.
8b]J	G/B
8dd	.
=9	=9
1cc	C
=10	=10
1r	.
*-	*-